src/pos-icons/excavator.svg

<svg height="24" viewBox="0 0 24 24" width="24" xmlns="http://www.w3.org/2000/svg"><path d="m18.5 18.5c.54 0 1 .46 1 1s-.46 1-1 1h-12c-.54 0-1-.46-1-1s.46-1 1-1zm0-1.5h-12c-1.37 0-2.5 1.13-2.5 2.5s1.13 2.5 2.5 2.5h12c1.38 0 2.5-1.12 2.5-2.5s-1.12-2.5-2.5-2.5m2.5-6h-3v-4h-5l-3 4v5h12zm-9.46 0 1.96-2.5h2.5v2.5zm-1.78-7.59-5-1.41-2.76 9.83c-.34 1.28.41 2.61 1.7 2.97l1.16.32 3.29-2.83-3.88-1.08 1.88-6.75 2.79.78c.56.29 1.77 1.1 2.53 2.13l1.03-1.37h.44c-1.26-1.59-3.09-2.54-3.18-2.59z"/></svg>

<?xml version="1.0" encoding="UTF-8"?><!DOCTYPE svg PUBLIC "-//W3C//DTD SVG 1.1//EN" "http://www.w3.org/Graphics/SVG/1.1/DTD/svg11.dtd"><svg xmlns="http://www.w3.org/2000/svg" xmlns:xlink="http://www.w3.org/1999/xlink" version="1.1" id="mdi-excavator" width="24" height="24" viewBox="0 0 24 24"><path d="M18.5 18.5C19.04 18.5 19.5 18.96 19.5 19.5S19.04 20.5 18.5 20.5H6.5C5.96 20.5 5.5 20.04 5.5 19.5S5.96 18.5 6.5 18.5H18.5M18.5 17H6.5C5.13 17 4 18.13 4 19.5S5.13 22 6.5 22H18.5C19.88 22 21 20.88 21 19.5S19.88 17 18.5 17M21 11H18V7H13L10 11V16H22L21 11M11.54 11L13.5 8.5H16V11H11.54M9.76 3.41L4.76 2L2 11.83C1.66 13.11 2.41 14.44 3.7 14.8L4.86 15.12L8.15 12.29L4.27 11.21L6.15 4.46L8.94 5.24C9.5 5.53 10.71 6.34 11.47 7.37L12.5 6H12.94C11.68 4.41 9.85 3.46 9.76 3.41Z" /></svg>
